!!!!SEGMENT: pl-wn--sd-xvi-o-248_anonim--kancjonal-zamoyskich-piesn-nowa-ktora-w-sobie-zamyka-modlitwe-ku-panu-bogu-krzyczym-k-tobie-wieczny-mily-panie.krn
!!!cenid: 15xx:806
!!!COM: Anonim
!!!COM-rismid: pe30004985
!!!CDT:
!!!CNT:
!!!OTL: Kancjonał Zamoyskich
!!!PDT: 1558
!!!AGN:
!!!SMS-siglum: PL-Wn
!!!SMS-shelfmark: SD XVI.O.248
!!!SMS-shelfwork: W
!!!SMS-variant:
!!!SMS-altvar:
!!!NIFC-rismid: 990072130
!!!URL-scan: https://polona.pl/item/piesn-nowa-ktora-wsobie-zamika-modlithwe-ku-panu-bogu-aby-wthym-zamiessaniu-koscyola,MTE3MjM1MA/3/#info:metadata
!!!ONB-nifc: UWAGA: proszę zapisywać tylko teksty występujące bezpośrednio pod nutami
!!!key: d:dor
**kern	**kern	**kern	**kern
*part4	*part3	*part2	*part1
*staff4	*staff3	*staff2	*staff1
*I"BASS.	*I"TENOR.	*I"ALT.	*I"CANTVS.
*I'B	*I'T	*I'A	*I'S
*Ibass	*Itenor	*Ialto	*Isoprn
*ICvox	*ICvox	*ICvox	*ICvox
*clefF4	*clefC4	*clefC3	*clefC1
*k[]	*k[]	*k[]	*k[]
*d:dor	*d:dor	*d:dor	*d:dor
*M2/1	*M2/1	*M2/1	*M2/1
*met(C|)	*met(C|)	*met(C|)	*met(C|)
=1-	=1-	=1-	=1-
1r	1r	1r	1r
2r	2r	2r	2r
2D/	2D/	2A/	2d/
=2-	=2-	=2-	=2-
2D/	2D/	2A/	2d/
2D/	2D/	2d\	2a\
2.AA/	2A/	2c/	2a\
.	2A/	2e\	2cc\
4A\	.	.	.
=3-	=3-	=3-	=3-
2G\	1d	2g\	2b\
2D/	.	1f	2.a\
2F\	2c\	.	.
.	.	.	4g/
2G\	2B\	2e\	1g\
=4-	=4-	=4-	=4-
1D	1A	1d	.
.	.	.	2f/
2GG/	1G	2B/	2g,/
!	!	!LO:SIC:v:s=1e	!
1C/	.	1d\	2g/
=5-	=5-	=5-	=5-
.	2c\	.	2e/
*	*	*	*custos:a
!	!	!	!LO:LB:g=original
2AA/	2c\	2e\	1a
*custos:E	*	*	*
!LO:LB:g=original	!	!	!
1E	1B	1e	.
.	.	.	2g/
*	*custos:A	*	*
=6-	=6-	=6-	=6-
!	!LO:LB:g=original	!	!
2AA/	2.A/	2e\	2.cc\
*	*	*custos:c	*
!	!	!LO:LB:g=original	!
1A	.	4c/	.
.	4B\	4d\	4b\
.	2c\	4e\	4a\
.	.	4f\	4g\
4G\	2d\	1g\	2.b\
4F\	.	.	.
=7-	=7-	=7-	=7-
2E\	2e\	.	.
.	.	.	4a\
2AA/	2c\	2e\	1a
1E	1B	1e	.
.	.	.	2g/
=8-	=8-	=8-	=8-
1AA	1A	1c	1a
2D/	2A/	2d\	2f/
1D\	1A\	1d\	1a\
=9-	=9-	=9-	=9-
.	.	.	.
2D/	2d\	2A/	2f/
1F	1c	1A	1f
=10-	=10-	=10-	=10-
2F\	2A/	2c/	2f/
*	*	*	*custos:e
!	!	!	!LO:LB:g=original
1C	1G	1c	2.e/
.	.	.	4f/
*custos:C	*custos:c	*	*
!LO:LB:g=original	!LO:LB:g=original	!	!
2C/	2c\	2e\	2g/
=11-	=11-	=11-	=11-
2D/	1A	2d\	2f/
*	*	*custos:e	*
!	!	!LO:LB:g=original	!
2AA/	.	2e\	2cc\
2E\	2G/	4g\	4b\
.	.	4f\	4a\
!LO:TX:t=P:problem:skreślona cauda	!	!	!
1E\	1G/	4e\	4g/
.	.	4d\	4f/
=12-	=12-	=12-	=12-
.	.	2c/	2e/
2C/	2c\	2e\	2g/
2D/	1A	2d\	2f/
2AA/	.	1c\	2.e/
=13-	=13-	=13-	=13-
2C/	2G/	.	.
.	.	.	4d/
2D/	2F/	2A/	1d
1AA	1E	1A	.
.	.	.	2c/
=14-	=14-	=14-	=14-
!LO:N:vis=000	!	!	!
0D	0Dl/	0Al/	0dl/
==	==	==	==
*-	*-	*-	*-
!!!system-decoration: [(s1,s2,s3,s4)]
!!!RDF**kern: > = above
!!!RDF**kern: < = below
!!!RDF**kern: l = terminal long
!!!ENC: Katarzyna Serwa
!!!END: 2022-05-06
!!!AIN: 1 alto 1 bass 1 soprn 1 tenor
!!!ENC: Mateusz Solarz
!!!END: 2022-04-25
